Origami/24x24/apps/retroarch.svg

<svg width="24" height="24" version="1" xmlns="http://www.w3.org/2000/svg">
 <rect transform="matrix(0,-1,-1,0,0,0)" x="-22" y="-22" width="20" height="20" rx="1" ry="1" style="fill:#cccccc"/>
 <path d="m3 2c-0.554 0-1 0.446-1 1v0.5c0-0.554 0.446-1 1-1h18c0.554 0 1 0.446 1 1v-0.5c0-0.554-0.446-1-1-1h-18z" style="fill:#ffffff;opacity:.2"/>
 <path d="m3 22.5c-0.554 0-1-0.446-1-1v-0.5c0 0.554 0.446 1 1 1h18c0.554 0 1-0.446 1-1v0.5c0 0.554-0.446 1-1 1h-18z" style="opacity:.2"/>
 <path d="m8.5 8 1.5 2h-3l-0.212 1h-1.788l0.5-2h-1l-1 4h1 1.912l-0.412 2h2l-1.5 2h2l1.5-2h4l1.5 2h2l-1.5-2h2l-0.412-2h2.912l-1-4h-1l0.5 2h-1.788l-0.212-1h-3l1.5-2h-1l-1.5 2h-2l-1.5-2z" style="fill:#565656"/>
 <path d="m8 11.5v2h2v-2h-2zm6 0v2h2v-2h-2z" style="opacity:.2"/>
 <path d="m8 11v2h2v-2h-2zm6 0v2h2v-2h-2z" style="fill:#ffffff"/>
</svg>

<svg xmlns="http://www.w3.org/2000/svg" width="24" height="24" version="1">
 <rect style="fill:#cccccc" width="20" height="20" x="-22" y="-22" rx="1" ry="1" transform="matrix(0,-1,-1,0,0,0)"/>
 <path style="opacity:0.2;fill:#ffffff" d="M 3,2 C 2.446,2 2,2.446 2,3 l 0,0.5 c 0,-0.554 0.446,-1 1,-1 l 18,0 c 0.554,0 1,0.446 1,1 L 22,3 C 22,2.446 21.554,2 21,2 L 3,2 Z"/>
 <path style="opacity:0.2" d="m 3,22.5 c -0.554,0 -1,-0.446 -1,-1 L 2,21 c 0,0.554 0.446,1 1,1 l 18,0 c 0.554,0 1,-0.446 1,-1 l 0,0.5 c 0,0.554 -0.446,1 -1,1 l -18,0 z"/>
 <path style="fill:#565656" d="M 8.5,8 10,10 7,10 6.788,11 5,11 5.5,9 l -1,0 -1,4 1,0 1.912,0 -0.412,2 2,0 -1.5,2 2,0 1.5,-2 4,0 1.5,2 2,0 -1.5,-2 2,0 -0.412,-2 2.912,0 -1,-4 -1,0 0.5,2 -1.788,0 L 17,10 14,10 15.5,8 14.5,8 13,10 11,10 9.5,8 Z"/>
 <path style="opacity:0.2" d="m 8,11.5 0,2 2,0 0,-2 -2,0 z m 6,0 0,2 2,0 0,-2 -2,0 z"/>
 <path style="fill:#ffffff" d="m 8,11 0,2 2,0 0,-2 -2,0 z m 6,0 0,2 2,0 0,-2 -2,0 z"/>
</svg>
